X:1
T: Jackson's Delight
T: The Irish Washerwoman
R:Jig
Q:180
K:G
M:6/8
L:1/16
|:dc|B2G2G2 D2G2G2|B2G2B2 d2c2B2|c2A2A2 E2A2A2|c2B2c2 e2d2c2|
B2G2G2 D2G2G2|B2G2B2 d2c2B2|c2B2c2 A2d2c2|B2G2G2 G4:|
|:ga|b2g2g2 d2g2g2|b2g2b2 b2a2g2|a2f2f2 d2f2f2|a2f2a2 a2g2f2|
e2g2g2 d2g2g2|c2g2g2 B2g2g2|c2B2c2 A2d2c2|B2G2G2 G4:|
